resources/assets/moreicons/textures/icons/worldmap/flora/fruit-tree.svg

<?xml version="1.0" encoding="UTF-8" standalone="no"?>
<svg
   version="1.1"
   id="Capa_1"
   x="0px"
   y="0px"
   viewBox="0 0 308.19437 363.78711"
   xml:space="preserve"
   width="308.19437"
   height="363.78711"
   xmlns="http://www.w3.org/2000/svg"
   xmlns:svg="http://www.w3.org/2000/svg"><defs
     id="defs1" /><g
     id="g1"
     transform="translate(-29.598976,1.3515625)"><defs
   id="defs15" />
<path
   id="path18"
   d="m 140.24219,-1.3515625 c -22.629,0 -43.074424,12.5142035 -53.357424,32.6582035 -3.479,6.814 -5.618735,14.269468 -6.302735,21.855468 -1.224,-0.15 -2.459125,-0.228515 -3.703125,-0.228515 -16.542,0 -30,13.458 -30,30 0,4.913003 1.163391,9.632672 3.400391,13.888672 -6.262,4.705994 -11.386563,10.789264 -14.976563,17.822264 -6.286,12.313 -7.4185,26.35883 -3.1875,39.54883 4.122,12.85 12.847532,23.35603 24.644532,29.70703 -5.428,17.313 2.504359,36.94439 19.068359,45.40039 5.372,2.742 11.1555,4.13086 17.1875,4.13086 4.482,0 8.954785,-0.80198 13.175785,-2.33398 4.72,9.942 12.53844,18.01826 22.43945,23.07226 7.09699,3.622 14.74442,5.44336 22.73242,5.44336 5.977,0 11.92663,-1.10534 17.51563,-3.15234 v 77.97461 H 139.75 c -4.414,0 -7.87109,3.45428 -7.87109,7.86328 v 12.29492 c 0,4.397 3.45709,7.8418 7.87109,7.8418 h 87.0918 c 4.506,0 8.03711,-3.4438 8.03711,-7.8418 v -12.29492 c 0,-4.336 -3.60611,-7.86328 -8.03711,-7.86328 h -28.96289 v -78.38867 l 1.91211,0.96874 1.08593,0.41993 h 0.44727 c 8.119,4 16.78906,6.02148 25.78906,6.02148 22.641,0 43.09577,-12.45633 53.38477,-32.61133 3.102,-6.077 5.11562,-12.43761 6.01562,-19.09961 1.114,0.125 2.23824,0.1875 3.36524,0.1875 16.542,0 30,-13.458 30,-30 0,-5.501 -1.49707,-10.82789 -4.28907,-15.46289 6.957,-4.831 12.60391,-11.29063 16.50391,-18.93164 6.286,-12.311 7.41478,-26.34934 3.17578,-39.52734 -4.146,-12.894002 -12.93922,-23.427579 -24.82422,-29.767579 0.106,-0.198 0.2095,-0.39761 0.3125,-0.59961 9.546,-18.699 2.06803,-41.692812 -16.66797,-51.257812 -5.336,-2.725 -11.30943,-4.164063 -17.27343,-4.164063 -6.267,0 -12.49939,1.579672 -18.02539,4.513672 -4.799,-7.972 -11.6485,-14.36125 -20.0625,-18.6562499 -7.09,-3.619 -14.7328,-5.453125 -22.7168,-5.453125 -11.464,0 -22.84042,3.9899217 -31.73242,11.0449219 L 167.55664,5.1386719 c -0.365,-0.187 -0.7543,-0.3269219 -1.1543,-0.4199219 -8.227,-4.02799995 -17.02215,-6.0703125 -26.16015,-6.0703125 z M 252.57812,71.376953 c 0.84292,-0.0011 1.69762,0.11931 2.54102,0.369141 0.69565,0.206168 1.22656,0.766827 1.39453,1.472656 0.91003,3.823844 -0.80231,7.887043 -4.34765,9.853516 3.654,4.007578 6.17853,11.000403 7.39453,16.298828 0.38891,1.694976 1.01372,3.230056 1.85547,4.564456 6.3135,10.00811 -3.81084,23.47092 -15.45899,23.4707 -11.60733,0 -21.78518,-13.43853 -15.45898,-23.46875 0.83736,-1.32762 1.46879,-2.89196 1.875,-4.648438 1.36011,-5.882129 4.677,-15.085675 9.78906,-18.291015 l -2.98438,-2.986328 c -0.79151,-0.791514 -0.79151,-2.073721 0,-2.865235 0.79152,-0.791513 2.07383,-0.791513 2.86524,0 l 2.16015,2.158204 c 1.29404,-3.660888 4.72235,-5.922791 8.375,-5.927735 z m 0.1211,4.056641 c -2.65162,-0.05876 -4.8296,1.994719 -4.95117,4.625 0.0847,0.02068 0.16931,0.04288 0.2539,0.06641 2.57809,-0.06861 4.61487,-2.144621 4.69727,-4.691406 z M 109.41797,78.65625 c 0.1464,0.01007 0.29199,0.03432 0.43555,0.07617 2.67582,0.784244 4.81434,2.247482 6.37695,4.365234 0.87089,1.177835 1.47647,2.459612 1.89062,3.734375 0.88265,-2.473158 3.18264,-6.48553 8.86914,-7.365234 0.62711,-0.09693 1.26444,0.09557 1.72852,0.527344 0.46555,0.430306 0.70667,1.050618 0.6582,1.683593 -0.15714,2.047258 -1.19836,5.005644 -5.32812,7.177735 2.67289,-0.371561 5.08304,-0.46682 7.1582,0.871093 4.5351,2.922557 6.91086,8.494426 5.11914,18.82617 -1.61695,9.32281 -7.77738,14.4893 -11.56055,16.75391 H 107.7793 c -3.27943,-1.91949 -9.503529,-7.71739 -12.119144,-16.2207 -3.251527,-10.550582 1.080756,-17.49855 6.701174,-20.152348 5.5602,-2.627364 8.27744,-0.276462 12.03711,0.519531 -0.2717,-1.305604 -0.76536,-2.667899 -1.62891,-3.833984 -0.99426,-1.340852 -2.34314,-2.255015 -4.09961,-2.773438 -0.97663,-0.28785 -1.59264,-1.240573 -1.45312,-2.248047 l 0.0234,-0.175781 c 0.0823,-0.591854 0.41961,-1.116841 0.92188,-1.441406 0.3756,-0.243424 0.81665,-0.35444 1.25586,-0.324219 z m -4.07031,13.333984 c -0.27666,0.02364 -0.55219,0.102184 -0.8125,0.240235 -2.74633,1.446592 -7.404669,6.102952 -5.363285,13.347651 0.264352,0.94434 1.121615,1.56055 2.058595,1.56055 0.19092,0 0.38866,-0.0267 0.58398,-0.0781 1.13818,-0.3231 1.80015,-1.5044 1.47852,-2.64258 -1.57143,-5.579295 2.73745,-8.131604 3.25,-8.412111 1.03831,-0.555138 1.43501,-1.842544 0.88281,-2.880859 -0.41525,-0.782041 -1.24817,-1.205672 -2.07812,-1.134766 z m 131.8457,19.023436 c -0.26328,10e-4 -0.53187,0.0556 -0.78906,0.16602 -1.02865,0.44144 -1.50395,1.63346 -1.0625,2.66211 0.83145,1.93692 2.26414,3.75294 4.0332,5.11328 0.88738,0.68263 2.15971,0.51606 2.8418,-0.3711 0.68241,-0.88726 0.51628,-2.1596 -0.3711,-2.84179 -1.21129,-0.93159 -2.22459,-2.20806 -2.77929,-3.5 -0.33109,-0.77149 -1.08321,-1.23274 -1.87305,-1.22852 z m -24.72852,39.91211 c 0.62234,-0.0613 1.22091,0.24826 1.53321,0.79297 0.30996,0.54244 0.27116,1.22043 -0.0977,1.72656 -5.41056,7.41941 -8.2886,16.38566 -8.25,25.53907 1.44348,-0.23923 4.29321,-2.1347 8.00586,-1.16602 2.48502,0.64843 4.6946,2.26349 5.92383,4.53516 0.72356,1.33749 1.07068,2.84914 1.14648,4.40429 0.11892,2.43689 -0.42921,4.97971 -1.24218,7.1211 -2.36814,6.23625 -8.1772,11.51173 -15.08594,11.51171 -3.64343,0 -7.00369,-1.46142 -9.7168,-3.79687 0.032,0.0275 2.22187,-3.4475 2.75977,-7.9375 0.33136,-2.76576 0.0853,-5.99766 -0.95508,-8.23437 -1.50113,-3.22764 -5.11404,-5.73161 -5.4336,-5.4336 1.64525,-1.53427 3.84961,-2.47656 6.27539,-2.47656 1.26486,0 2.46914,0.25379 3.56446,0.7168 0.49546,0.261 1.02856,0.4677 1.58984,0.61523 -0.009,-8.57238 2.36493,-16.98598 6.84766,-24.27148 -15.50086,2.81207 -26.6588,13.69022 -29.0957,28.05468 0.835,-0.13164 1.61977,-0.39113 2.32812,-0.76562 1.0951,-0.46301 2.29959,-0.71875 3.56445,-0.71875 0.10373,0 0.20705,0.003 0.31055,0.006 3.3073,0.10985 6.36766,2.05393 7.88672,5.00195 1.8039,3.50068 1.10871,8.10331 -0.28711,11.62305 -2.42577,6.11709 -8.17309,11.24804 -14.98242,11.24804 -4.25169,0 -8.22163,-2.05538 -11.10157,-5.11914 -4.38355,-4.66295 -7.67377,-13.7395 -3.125,-19.3457 1.74081,-2.14548 4.39626,-3.41406 7.1543,-3.41406 1.26487,0 2.46913,0.25379 3.56446,0.7168 0.46844,0.24739 0.97275,0.44654 1.5,0.59179 2.69745,-17.01766 16.50698,-29.63025 35.41796,-31.52539 z m -42.00976,35.39844 c -1.7492,0 -3.16797,1.42331 -3.16797,3.17773 0,1.75442 1.41877,3.17774 3.16797,3.17774 1.7492,0 3.16797,-1.42332 3.16797,-3.17774 0,-1.75442 -1.41877,-3.17773 -3.16797,-3.17773 z" />















</g></svg>

<?xml version="1.0" encoding="UTF-8" standalone="no"?>
<!-- Generator: Adobe Illustrator 17.1.0, SVG Export Plug-In . SVG Version: 6.00 Build 0)  -->

<svg
   version="1.1"
   id="Capa_1"
   x="0px"
   y="0px"
   viewBox="0 0 363.787 363.787"
   style="enable-background:new 0 0 363.787 363.787;"
   xml:space="preserve"
   sodipodi:docname="fruit-tree.svg"
   inkscape:version="1.4 (86a8ad7, 2024-10-11)"
   xmlns:inkscape="http://www.inkscape.org/namespaces/inkscape"
   xmlns:sodipodi="http://sodipodi.sourceforge.net/DTD/sodipodi-0.dtd"
   xmlns="http://www.w3.org/2000/svg"
   xmlns:svg="http://www.w3.org/2000/svg"><defs
   id="defs15" /><sodipodi:namedview
   id="namedview15"
   pagecolor="#ffffff"
   bordercolor="#000000"
   borderopacity="0.25"
   inkscape:showpageshadow="2"
   inkscape:pageopacity="0.0"
   inkscape:pagecheckerboard="true"
   inkscape:deskcolor="#d1d1d1"
   inkscape:zoom="2.2183311"
   inkscape:cx="182.11889"
   inkscape:cy="197.22033"
   inkscape:window-width="1920"
   inkscape:window-height="1009"
   inkscape:window-x="-8"
   inkscape:window-y="-8"
   inkscape:window-maximized="1"
   inkscape:current-layer="Capa_1" />
<path
   id="path18"
   d="M 140.24219 -1.3515625 C 117.61319 -1.3515625 97.167766 11.162641 86.884766 31.306641 C 83.405766 38.120641 81.266031 45.576109 80.582031 53.162109 C 79.358031 53.012109 78.122906 52.933594 76.878906 52.933594 C 60.336906 52.933594 46.878906 66.391594 46.878906 82.933594 C 46.878906 87.846597 48.042297 92.566266 50.279297 96.822266 C 44.017297 101.52826 38.892734 107.61153 35.302734 114.64453 C 29.016734 126.95753 27.884234 141.00336 32.115234 154.19336 C 36.237234 167.04336 44.962766 177.54939 56.759766 183.90039 C 51.331766 201.21339 59.264125 220.84478 75.828125 229.30078 C 81.200125 232.04278 86.983625 233.43164 93.015625 233.43164 C 97.497625 233.43164 101.97041 232.62966 106.19141 231.09766 C 110.91141 241.03966 118.72985 249.11592 128.63086 254.16992 C 135.72785 257.79192 143.37528 259.61328 151.36328 259.61328 C 157.34028 259.61328 163.28991 258.50794 168.87891 256.46094 L 168.87891 334.43555 L 139.75 334.43555 C 135.336 334.43555 131.87891 337.88983 131.87891 342.29883 L 131.87891 354.59375 C 131.87891 358.99075 135.336 362.43555 139.75 362.43555 L 226.8418 362.43555 C 231.3478 362.43555 234.87891 358.99175 234.87891 354.59375 L 234.87891 342.29883 C 234.87891 337.96283 231.2728 334.43555 226.8418 334.43555 L 197.87891 334.43555 L 197.87891 256.04688 L 199.79102 257.01562 L 200.87695 257.43555 L 201.32422 257.43555 C 209.44322 261.43555 218.11328 263.45703 227.11328 263.45703 C 249.75428 263.45703 270.20905 251.0007 280.49805 230.8457 C 283.60005 224.7687 285.61367 218.40809 286.51367 211.74609 C 287.62767 211.87109 288.75191 211.93359 289.87891 211.93359 C 306.42091 211.93359 319.87891 198.47559 319.87891 181.93359 C 319.87891 176.43259 318.38184 171.1057 315.58984 166.4707 C 322.54684 161.6397 328.19375 155.18007 332.09375 147.53906 C 338.37975 135.22806 339.50853 121.18972 335.26953 108.01172 C 331.12353 95.117718 322.33031 84.584141 310.44531 78.244141 C 310.55131 78.046141 310.65481 77.846531 310.75781 77.644531 C 320.30381 58.945531 312.82584 35.951719 294.08984 26.386719 C 288.75384 23.661719 282.78041 22.222656 276.81641 22.222656 C 270.54941 22.222656 264.31702 23.802328 258.79102 26.736328 C 253.99202 18.764328 247.14252 12.375078 238.72852 8.0800781 C 231.63852 4.4610781 223.99572 2.6269531 216.01172 2.6269531 C 204.54772 2.6269531 193.1713 6.6168748 184.2793 13.671875 L 167.55664 5.1386719 C 167.19164 4.9516719 166.80234 4.81175 166.40234 4.71875 C 158.17534 0.69075005 149.38019 -1.3515625 140.24219 -1.3515625 z M 252.57812 71.376953 C 253.42104 71.375812 254.27574 71.496263 255.11914 71.746094 C 255.81479 71.952262 256.3457 72.512921 256.51367 73.21875 C 257.4237 77.042594 255.71136 81.105793 252.16602 83.072266 C 255.82002 87.079844 258.34455 94.072669 259.56055 99.371094 C 259.94946 101.06607 260.57427 102.60115 261.41602 103.93555 C 267.72952 113.94366 257.60518 127.40647 245.95703 127.40625 C 234.3497 127.40625 224.17185 113.96772 230.49805 103.9375 C 231.33541 102.60988 231.96684 101.04554 232.37305 99.289062 C 233.73316 93.406933 237.05005 84.203387 242.16211 80.998047 L 239.17773 78.011719 C 238.38622 77.220205 238.38622 75.937998 239.17773 75.146484 C 239.96925 74.354971 241.25156 74.354971 242.04297 75.146484 L 244.20312 77.304688 C 245.49716 73.6438 248.92547 71.381897 252.57812 71.376953 z M 252.69922 75.433594 C 250.0476 75.374829 247.86962 77.428313 247.74805 80.058594 C 247.83275 80.079276 247.91736 80.101472 248.00195 80.125 C 250.58004 80.056387 252.61682 77.980379 252.69922 75.433594 z M 109.41797 78.65625 C 109.56437 78.666324 109.70996 78.690566 109.85352 78.732422 C 112.52934 79.516666 114.66786 80.979904 116.23047 83.097656 C 117.10136 84.275491 117.70694 85.557268 118.12109 86.832031 C 119.00374 84.358873 121.30373 80.346501 126.99023 79.466797 C 127.61734 79.369868 128.25467 79.562366 128.71875 79.994141 C 129.1843 80.424447 129.42542 81.044759 129.37695 81.677734 C 129.21981 83.724992 128.17859 86.683378 124.04883 88.855469 C 126.72172 88.483908 129.13187 88.388649 131.20703 89.726562 C 135.74213 92.649119 138.11789 98.220988 136.32617 108.55273 C 134.70922 117.87554 128.54879 123.04203 124.76562 125.30664 L 107.7793 125.30664 C 104.49987 123.38715 98.275771 117.58925 95.660156 109.08594 C 92.408629 98.53536 96.740912 91.587392 102.36133 88.933594 C 107.92153 86.30623 110.63877 88.657132 114.39844 89.453125 C 114.12674 88.147521 113.63308 86.785226 112.76953 85.619141 C 111.77527 84.278289 110.42639 83.364126 108.66992 82.845703 C 107.69329 82.557853 107.07728 81.60513 107.2168 80.597656 L 107.24023 80.421875 C 107.32248 79.830021 107.65984 79.305034 108.16211 78.980469 C 108.53771 78.737045 108.97876 78.626029 109.41797 78.65625 z M 105.34766 91.990234 C 105.071 92.01387 104.79547 92.092418 104.53516 92.230469 C 101.78883 93.677061 97.130491 98.333421 99.171875 105.57812 C 99.436227 106.52246 100.29349 107.13867 101.23047 107.13867 C 101.42139 107.13867 101.61913 107.11195 101.81445 107.06055 C 102.95263 106.73745 103.6146 105.55615 103.29297 104.41797 C 101.72154 98.838675 106.03042 96.286366 106.54297 96.005859 C 107.58128 95.450721 107.97798 94.163315 107.42578 93.125 C 107.01053 92.342959 106.17761 91.919328 105.34766 91.990234 z M 237.19336 111.01367 C 236.93008 111.01508 236.66149 111.06927 236.4043 111.17969 C 235.37565 111.62113 234.90035 112.81315 235.3418 113.8418 C 236.17325 115.77872 237.60594 117.59474 239.375 118.95508 C 240.26238 119.63771 241.53471 119.47114 242.2168 118.58398 C 242.89921 117.69672 242.73308 116.42438 241.8457 115.74219 C 240.63441 114.8106 239.62111 113.53413 239.06641 112.24219 C 238.73532 111.4707 237.9832 111.00945 237.19336 111.01367 z M 212.46484 150.92578 C 213.08718 150.8645 213.68575 151.17404 213.99805 151.71875 C 214.30801 152.26119 214.26921 152.93918 213.90039 153.44531 C 208.48983 160.86472 205.61179 169.83097 205.65039 178.98438 C 207.09387 178.74515 209.9436 176.84968 213.65625 177.81836 C 216.14127 178.46679 218.35085 180.08185 219.58008 182.35352 C 220.30364 183.69101 220.65076 185.20266 220.72656 186.75781 C 220.84548 189.1947 220.29735 191.73752 219.48438 193.87891 C 217.11624 200.11516 211.30718 205.39064 204.39844 205.39062 C 200.75501 205.39062 197.39475 203.9292 194.68164 201.59375 C 194.71364 201.62122 196.90351 198.14625 197.44141 193.65625 C 197.77277 190.89049 197.52673 187.65859 196.48633 185.42188 C 194.9852 182.19424 191.37229 179.69027 191.05273 179.98828 C 192.69798 178.45401 194.90234 177.51172 197.32812 177.51172 C 198.59298 177.51172 199.79726 177.76551 200.89258 178.22852 C 201.38804 178.48952 201.92114 178.69622 202.48242 178.84375 C 202.47334 170.27137 204.84735 161.85777 209.33008 154.57227 C 193.82922 157.38434 182.67128 168.26249 180.23438 182.62695 C 181.06938 182.49531 181.85415 182.23582 182.5625 181.86133 C 183.6576 181.39832 184.86209 181.14258 186.12695 181.14258 C 186.23068 181.14258 186.334 181.14544 186.4375 181.14844 C 189.7448 181.25829 192.80516 183.20237 194.32422 186.15039 C 196.12812 189.65107 195.43293 194.2537 194.03711 197.77344 C 191.61134 203.89053 185.86402 209.02148 179.05469 209.02148 C 174.803 209.02148 170.83306 206.9661 167.95312 203.90234 C 163.56957 199.23939 160.27935 190.16284 164.82812 184.55664 C 166.56893 182.41116 169.22438 181.14258 171.98242 181.14258 C 173.24729 181.14258 174.45155 181.39637 175.54688 181.85938 C 176.01532 182.10677 176.51963 182.30592 177.04688 182.45117 C 179.74433 165.43351 193.55386 152.82092 212.46484 150.92578 z M 170.45508 186.32422 C 168.70588 186.32422 167.28711 187.74753 167.28711 189.50195 C 167.28711 191.25637 168.70588 192.67969 170.45508 192.67969 C 172.20428 192.67969 173.62305 191.25637 173.62305 189.50195 C 173.62305 187.74753 172.20428 186.32422 170.45508 186.32422 z " />















</svg>
